modules/hawcons-stroke/icons/icon-22-one-finger.svg

<?xml version="1.0" encoding="UTF-8" standalone="no"?>
<svg width="32px" height="32px" viewBox="0 0 32 32" version="1.1" xmlns="http://www.w3.org/2000/svg" xmlns:xlink="http://www.w3.org/1999/xlink" xmlns:sketch="http://www.bohemiancoding.com/sketch/ns">
    <!-- Generator: Sketch 3.0.3 (7891) - http://www.bohemiancoding.com/sketch -->
    <title>icon 22 one finger</title>
    <desc>Created with Sketch.</desc>
    <defs></defs>
    <g id="Page-1" stroke="none" stroke-width="1" fill="none" fill-rule="evenodd" sketch:type="MSPage">
        <g id="icon-22-one-finger" sketch:type="MSArtboardGroup" fill="#929292">
            <path d="M19.4987391,28.9999999 C23.6415711,29 27,25.4147752 27,21.5 C27,21.5 27,23.8132437 27,21.5 L27,17.7491622 L27,15.5016756 C27,14.6723231 26.3342028,14 25.5,14 C24.6715729,14 24,14.6711894 24,15.5016756 L24,16 L23,16 L23,13.5064385 C23,12.6744555 22.3342028,12 21.5,12 C20.6715729,12 20,12.6715406 20,13.5064385 L20,15 L19,15 L19,12.5064385 C19,11.6744555 18.3342028,11 17.5,11 C16.6715729,11 16,11.6715406 16,12.5064385 L16,16 L15,16 L15,5.50524116 C15,4.67391942 14.3342028,4 13.5,4 C12.6715729,4 12,4.66712976 12,5.50524116 L12,16.7999878 C9.94160039,14.599567 7.23162978,12.1791206 6.12103271,13.2957153 C5.03386293,14.3887562 7.83536199,17.4007216 11.7473755,23.9830936 C13.5099958,26.9488875 15.7402849,28.9995418 19.4987391,28.9999999 L19.4987391,28.9999999 L19.4987391,28.9999999 Z M28,21.5 C28,26.1944206 24.1944206,30 19.5,30.0000003 C16.3870848,30.0000003 13.101807,28.5474856 10.8408204,24.4282229 C7.57733174,18.4825159 3.40385286,14.5832077 5.39111327,12.5959473 C6.81276236,11.1742982 9.04484162,12.5381668 11,14.3667868 L11,14.3667868 L11,5.50840855 C11,4.11541748 12.1192881,3 13.5,3 C14.8903379,3 16,4.12305276 16,5.50840855 L16,10.4983653 C16.4178303,10.1853054 16.937197,10 17.5,10 C18.5825181,10 19.4948851,10.6774672 19.8458175,11.6281239 C20.2865931,11.2379894 20.8657109,11 21.5,11 C22.8903379,11 24,12.1182256 24,13.4976267 L24,13.5110883 C24.4178303,13.1985158 24.937197,13.014191 25.5,13.014191 C26.8903379,13.014191 28,14.1335355 28,15.5143168 L28,21.5 L28,21.5 Z" id="one-finger" sketch:type="MSShapeGroup"></path>
        </g>
    </g>
</svg>

<svg width="32" height="32" xmlns="http://www.w3.org/2000/svg"><path d="M19.499 29C23.642 29 27 25.415 27 21.5c0 0 0 2.313 0 0v-5.998a1.5 1.5 0 0 0-3 0V16h-1v-2.494a1.5 1.5 0 1 0-3 0V15h-1v-2.494a1.5 1.5 0 1 0-3 0V16h-1V5.505a1.499 1.499 0 1 0-3 0V16.8c-2.058-2.2-4.768-4.62-5.879-3.504-1.087 1.093 1.714 4.105 5.626 10.687C13.51 26.95 15.74 29 19.5 29zM28 21.5a8.5 8.5 0 0 1-8.5 8.5c-3.113 0-6.398-1.453-8.66-5.572-3.263-5.945-7.436-9.845-5.449-11.832 1.422-1.422 3.654-.058 5.609 1.77V5.509a2.5 2.5 0 1 1 5 0v4.99A2.493 2.493 0 0 1 17.5 10c1.083 0 1.995.677 2.346 1.628.44-.39 1.02-.628 1.654-.628 1.39 0 2.5 1.118 2.5 2.498v.013a2.495 2.495 0 0 1 1.5-.497c1.39 0 2.5 1.12 2.5 2.5V21.5z" fill="#929292" fill-rule="evenodd"/></svg>
